X: 12
T: The Wind That Shakes The Barley
R: reel
M: 4/4
L: 1/8
K: Dmaj
|A2AB ADED|BDGA B2dB|FAAB ABde|f2ed BedB|A2AB ADED|BDGA B2dB|FAAB ABde|f2ed Bcde||f3a g3e|f2ed Bcde|fefa g2fg|afed Bcde|f3a g3e|f2ed BcdA|defg a3b|afed BedB|


Tune 116	Setting 12716

